packages/katcn/src/icons/svg/pause-solid.svg

<svg width="24" height="25" viewBox="0 0 24 25" fill="none" xmlns="http://www.w3.org/2000/svg">
<path d="M7.37147 22.208H5.62288C4.16572 22.208 3 21.008 3 19.508V4.90801C3 3.40801 4.16572 2.20801 5.62288 2.20801H7.37147C8.82862 2.20801 9.99434 3.40801 9.99434 4.90801V19.408C10.0915 21.008 8.92576 22.208 7.37147 22.208Z" fill="black"/>
<path d="M18.375 22.208H16.625C15.1667 22.208 14 21.008 14 19.508V4.90801C14 3.40801 15.1667 2.20801 16.625 2.20801H18.375C19.8333 2.20801 21 3.40801 21 4.90801V19.408C21 21.008 19.8333 22.208 18.375 22.208Z" fill="black"/>
</svg>

<svg xmlns="http://www.w3.org/2000/svg" fill="none" viewBox="0 0 24 25"><path fill="#000" d="M7.371 22.208H5.623c-1.457 0-2.623-1.2-2.623-2.7v-14.6c0-1.5 1.166-2.7 2.623-2.7H7.37c1.458 0 2.623 1.2 2.623 2.7v14.5c.098 1.6-1.068 2.8-2.623 2.8m11.005 0h-1.75c-1.458 0-2.625-1.2-2.625-2.7v-14.6c0-1.5 1.167-2.7 2.625-2.7h1.75c1.458 0 2.625 1.2 2.625 2.7v14.5c0 1.6-1.167 2.8-2.625 2.8"/></svg>
